packages/core/src/svgs/tokens/mono/SPARTA.svg

<svg width="24" height="24" viewBox="0 0 24 24" fill="none" xmlns="http://www.w3.org/2000/svg">
<path d="M10.1838 21.9988C10.2483 21.9856 10.3116 21.9723 10.3766 21.9599C10.2888 18.4823 9.94881 14.9934 10.8821 11.6051C10.721 11.4717 10.6466 11.3773 10.5482 11.334C10.0411 11.1117 9.53439 10.8856 9.01328 10.6923C8.09829 10.354 7.74496 9.77172 7.9094 8.72785C8.11106 8.82063 8.29162 8.91117 8.4794 8.98841C9.09662 9.24284 9.70381 9.52957 10.3389 9.73451C11.1805 10.0067 11.3454 10.214 11.2144 11.0679C11.1255 11.6495 11.0116 12.229 10.9655 12.8145C10.9222 13.349 11.4543 14.0801 11.8816 14.1667C12.2522 14.2429 12.8244 13.7879 13.0055 13.2068C13.0783 12.9734 13.0455 12.7012 13.0193 12.4495C12.9588 11.8651 12.8616 11.2857 12.8016 10.7012C12.7493 10.2017 13.0261 9.93946 13.5139 9.77509C14.2015 9.54512 14.8677 9.25395 15.5422 8.98729C15.7266 8.91451 15.9082 8.83284 16.1144 8.74451C16.2094 9.92286 15.8944 10.3672 14.8422 10.7378C14.2737 10.9379 13.7316 11.2062 13.1032 11.4762C14.0411 14.9989 13.6855 18.4966 13.7399 22C14.0122 21.7056 14.2015 21.3961 14.3699 21.0761C14.516 20.7972 14.6327 20.505 14.7683 20.2206C15.4127 18.8673 16.0832 17.5244 16.6877 16.1555C16.8754 15.7289 16.9765 15.2317 16.9821 14.7655C17.0088 12.4696 17.0015 10.1734 16.9821 7.87674C16.9777 7.32952 16.9488 6.75397 16.7738 6.24231C16.461 5.32731 16.1805 4.34287 15.6022 3.58343C14.5622 2.21677 12.9727 1.84289 11.2594 2.05566C9.89165 2.22567 8.68162 2.8151 8.06107 3.99788C7.40885 5.24008 6.99552 6.59397 7.00552 8.02563C7.02218 10.2856 6.98829 12.5445 7.00552 14.8039C7.00774 15.1651 7.06386 15.5539 7.21219 15.8778C8.07052 17.7611 8.96218 19.6312 9.85107 21.5027C9.93442 21.6794 10.0716 21.8345 10.1838 21.9988Z" fill="white"/>
</svg>

<svg xmlns="http://www.w3.org/2000/svg" width="24" height="24" fill="none" viewBox="0 0 24 24">
    <path fill="#fff" d="m10.184 21.999.193-.04c-.088-3.477-.428-6.966.505-10.354-.161-.133-.235-.228-.334-.271-.507-.222-1.014-.448-1.535-.642-.915-.338-1.268-.92-1.104-1.964.202.093.383.183.57.26.618.255 1.225.542 1.86.747.841.272 1.006.479.875 1.333-.088.582-.202 1.161-.248 1.747-.044.534.488 1.265.916 1.352.37.076.942-.38 1.124-.96.072-.234.04-.506.013-.758-.06-.584-.157-1.163-.217-1.748-.053-.5.224-.762.712-.926.688-.23 1.354-.521 2.028-.788.185-.072.366-.154.572-.242.095 1.178-.22 1.622-1.272 1.993-.568.2-1.11.468-1.739.738.938 3.523.582 7.02.637 10.524.272-.294.461-.604.63-.924.146-.279.263-.571.398-.855.645-1.354 1.315-2.697 1.92-4.065a3.7 3.7 0 0 0 .294-1.39c.027-2.296.02-4.593 0-6.89-.004-.546-.033-1.122-.208-1.634-.313-.915-.594-1.9-1.172-2.659-1.04-1.366-2.63-1.74-4.343-1.527-1.367.17-2.577.76-3.198 1.942C7.41 5.24 6.996 6.594 7.006 8.026c.016 2.26-.018 4.518 0 6.778.002.361.058.75.206 1.074.859 1.883 1.75 3.753 2.64 5.625.082.176.22.331.332.496"/>
</svg>
